!!!COM: John Williams
!!!OTL: Rey A (Theme)
!!!GAW: Star Wars: Episode 7
!!!ODT: 2015
!!!OCL: Frank Lehman
!!!ENC: Claire Arthur
!!!ENC2: John McNamara
**kern	**harte	**harm	**pedal	**cadence
*clefG2	*	*	*	*
*k[]	*k[]	*k[]	*	*
*a:	*a:	*a:	*	*
*M4/4	*M4/4	*M4/4	*	*
*MM104	*MM104 	*MM104 	* 	* 
=1-	=1-	=1-	=1-	=1-
4a	Am:sus2	i	.	.
4cc	.	.	.	.
4.e	.	.	.	.
8a	.	.	.	.
=2	=2	=2	=2	=2
4dd	A:sus4(2)	.	.	.
2.ee	.	.	.	.
=3	=3	=3	=3	=3
4.a	A:min	.	.	.
16ddLL	.	.	.	.
16ccJJ	.	.	.	.
4b	A:sus4	.	.	.
4cc	F/3	VIb	.	.
=4	=4	=4	=4	=4
2.a	D	IV	.	PHC
.	.	.	.	//
[4a	.	.	.	.
=5	=5	=5	=5	=5
4a]	Am:sus2	i	.	.
4cc	.	.	.	.
4.a	.	.	.	.
8ee	.	.	.	.
=6	=6	=6	=6	=6
4ff#	D	IV	.	PHC
2dd	.	.	.	//
28aLL	.	.	.	.
28b	.	.	.	.
28cc	.	.	.	.
28dd	.	.	.	.
28ee	.	.	.	.
28ffn	.	.	.	.
28ggJJ	.	.	.	.
=7	=7	=7	=7	=7
[2aa	A:min(m6)	i	.	.
8aaL]	.	.	.	.
8gg	.	.	.	.
8cc	.	.	.	.
8ffJ	.	.	.	.
=8	=8	=8	=8	=8
2dd	G:sus4	-VII7	.	.
4dd	.	.	.	.
16eLL	G:min7	.	.	.
16f	.	.	.	.
16b	B-	-II	.	.
16ddJJ	.	.	.	.
=9	=9	=9	=9	=9
[2ff	A:min(m6)/5	ic	.	.
8ffL]	A:min(m6)	i	.	.
8ee	.	.	.	.
8e	.	.	.	.
8ddJ	.	.	.	.
=10	=10	=10	=10	=10
2.b	E:sus4	v	.	.
4b	G	-VII	.	.
=11	=11	=11	=11	=11
2cc	C:maj7	III7	.	.
8r	F	VI	.	.
8b	.	.	.	.
8dL	G/4	-VII	Pedal: C	.
8bJ	.	.	.	.
=12	=12	=12	=12	=12
2a	F/5	VIb	.	.
2g	G	-VII	Pedal: None	.
=13	=13	=13	=13	=13
1a	A:min	i	.	MC
.	.	.	.	]]
=	=	=	=	=
*-	*-	*-	*-	*-
